X:7
T:Banish Misfortune   
B:CRE1.038 (Ruaig an Mi-Adh)
F:file ID: cre.1/007ban_m
S:John Potts
M:6/8
%Q:160
R:jig
K:C
"D modal"
d/e/|f2d cAG|Add cAG|F2D D3|FEF GFG|
A3 cAG|AGA cde|fed cAG|Add d2:|
%B
e|f2d d^cd|f2a agf|e2c cBc|e2f gfe|
f2g afd|e2f gfe|gf/e/d cAG|Add d2:|
%C
e|f2d e2c|d2e c2d|A3 GAG|F2A GED|
c3 cAG|AGA cde|gf/e/d cAG|Add d2:|

%%%

